EdiMM/images/5image.svg

<svg xmlns="http://www.w3.org/2000/svg" width="24" height="24" viewBox="0 0 24 24"><path fill="none" d="M0 0h24v24H0V0z"/><path d="M21 19V5c0-1.1-.9-2-2-2H5c-1.1 0-2 .9-2 2v14c0 1.1.9 2 2 2h14c1.1 0 2-.9 2-2zM8.9 13.98l2.1 2.53 3.1-3.99c.2-.26.6-.26.8.01l3.51 4.68c.25.33.01.8-.4.8H6.02c-.42 0-.65-.48-.39-.81L8.12 14c.19-.26.57-.27.78-.02z"/></svg>

<svg width="24" height="24" viewBox="0 0 24 24" fill="none" xmlns="http://www.w3.org/2000/svg">
<path d="M21 19V5C21 3.9 20.1 3 19 3H5C3.9 3 3 3.9 3 5V19C3 20.1 3.9 21 5 21H19C20.1 21 21 20.1 21 19ZM8.9 13.98L11 16.51L14.1 12.52C14.3 12.26 14.7 12.26 14.9 12.53L18.41 17.21C18.66 17.54 18.42 18.01 18.01 18.01H6.02C5.6 18.01 5.37 17.53 5.63 17.2L8.12 14C8.31 13.74 8.69 13.73 8.9 13.98V13.98Z" fill="white"/>
</svg>
